img/svg/Facebook.svg

<svg width="50" height="50" viewBox="0 0 50 50" fill="none" xmlns="http://www.w3.org/2000/svg">
<path d="M50 5.35714V44.6429C50 47.6004 47.6004 50 44.6429 50H35.1228V30.2232H41.8862L42.8571 22.6786H35.1228V17.8571C35.1228 15.6696 35.7254 14.1853 38.8616 14.1853H42.8571V7.4442C42.1652 7.35491 39.7991 7.14286 37.0312 7.14286C31.2723 7.14286 27.3214 10.6585 27.3214 17.1205V22.6897H20.5357V30.2344H27.3326V50H5.35714C2.39955 50 0 47.6004 0 44.6429V5.35714C0 2.39955 2.39955 0 5.35714 0H44.6429C47.6004 0 50 2.39955 50 5.35714Z" fill="white"/>
</svg>

<svg width="50" height="50" fill="none" xmlns="http://www.w3.org/2000/svg"><path d="M50 5.357v39.286C50 47.6 47.6 50 44.643 50h-9.52V30.223h6.763l.971-7.544h-7.734v-4.822c0-2.187.602-3.672 3.739-3.672h3.995v-6.74c-.692-.09-3.058-.302-5.826-.302-5.759 0-9.71 3.516-9.71 9.978v5.569h-6.785v7.544h6.797V50H5.357A5.359 5.359 0 010 44.643V5.357C0 2.4 2.4 0 5.357 0h39.286C47.6 0 50 2.4 50 5.357z" fill="#fff"/></svg>
